img/social-icons.1c5be342.svg

<?xml version="1.0" encoding="UTF-8" standalone="no"?>
<svg
   xmlns:dc="http://purl.org/dc/elements/1.1/"
   xmlns:cc="http://creativecommons.org/ns#"
   xmlns:rdf="http://www.w3.org/1999/02/22-rdf-syntax-ns#"
   xmlns:svg="http://www.w3.org/2000/svg"
   xmlns="http://www.w3.org/2000/svg"
   xmlns:xlink="http://www.w3.org/1999/xlink"
   xmlns:sodipodi="http://sodipodi.sourceforge.net/DTD/sodipodi-0.dtd"
   xmlns:inkscape="http://www.inkscape.org/namespaces/inkscape"
   width="29"
   height="72"
   viewBox="0 0 29 72"
   version="1.1"
   id="svg13"
   sodipodi:docname="Vector (1).svg"
   inkscape:version="0.92.1 unknown">
  <metadata
     id="metadata17">
    <rdf:RDF>
      <cc:Work
         rdf:about="">
        <dc:format>image/svg+xml</dc:format>
        <dc:type
           rdf:resource="http://purl.org/dc/dcmitype/StillImage" />
        <dc:title>Vector</dc:title>
      </cc:Work>
    </rdf:RDF>
  </metadata>
  <sodipodi:namedview
     pagecolor="#ffffff"
     bordercolor="#666666"
     borderopacity="1"
     objecttolerance="10"
     gridtolerance="10"
     guidetolerance="10"
     inkscape:pageopacity="0"
     inkscape:pageshadow="2"
     inkscape:window-width="1920"
     inkscape:window-height="1027"
     id="namedview15"
     showgrid="false"
     fit-margin-top="0"
     fit-margin-left="0"
     fit-margin-right="0"
     fit-margin-bottom="0"
     inkscape:zoom="6.1619305"
     inkscape:cx="-19.04493"
     inkscape:cy="37.455471"
     inkscape:window-x="0"
     inkscape:window-y="0"
     inkscape:window-maximized="1"
     inkscape:current-layer="svg13" />
  <title
     id="title2">Vector</title>
  <desc
     id="desc4">Created using Figma</desc>
  <g
     id="Canvas"
     transform="translate(47916.449,23737.343)">
    <g
       id="Vector">
      <use
         xlink:href="#path0_fill"
         transform="translate(-47915.8,-23736.4)"
         id="use6"
         style="fill:#222222"
         x="0"
         y="0"
         width="100%"
         height="100%" />
    </g>
  </g>
  <defs
     id="defs11">
    <path
       id="path0_fill"
       d="M 27.8061,2.7625 C 26.8398,3.29375 25.6589,3.6125 24.5853,3.71875 25.7662,2.975 26.6251,1.80625 27.0545,0.425 25.981,1.0625 24.8,1.59375 23.4043,1.9125 22.3307,0.74375 20.9351,2.02656e-7 19.3247,2.02656e-7 16.2113,2.02656e-7 13.6346,2.65625 13.6346,6.05625 c 0,0.425 0,0.95625 0.1074,1.38125 C 9.01818,7.225 4.83117,4.78125 2.03983,1.16875 1.50303,2.01875 1.28831,3.08125 1.28831,4.25 c 0,2.125 0.96623,3.93125 2.46927,4.99375 C 2.79134,9.24375 1.93247,8.925 1.18095,8.5 v 0.10625 c 0,2.86875 1.93247,5.31245 4.50909,5.94995 -0.42943,0.1063 -0.96623,0.2126 -1.50303,0.2126 -0.32207,0 -0.75151,0 -1.07359,-0.1063 0.75152,2.4438 2.79134,4.1438 5.26061,4.1438 -1.93247,1.5937 -4.40174,2.55 -6.97836,2.55 -0.429436,0 -0.858874,0 -1.395670409543,-0.1063 C 2.46926,22.95 5.47533,24.0125 8.6961,24.0125 19.11,24.0125 24.8,14.875 24.8,6.90625 c 0,-0.2125 0,-0.53125 0,-0.74375 1.2883,-1.0625 2.2545,-2.125 3.0061,-3.4 z"
       inkscape:connector-curvature="0" />
    <path
       d="M 12.6684,8.7125 H 8.37403 V 5.95 c 0,-1.0625 0.75151,-1.275 1.18095,-1.275 0.53682,0 3.00602,0 3.00602,0 V 2.02656e-7 H 8.37403 C 3.65022,2.02656e-7 2.68398,3.50625 2.68398,5.63125 V 8.7125 H 4.09543e-7 v 4.7813 H 2.68398 c 0,6.1625 0,13.4937 0,13.4937 h 5.69005 c 0,0 0,-7.4375 0,-13.4937 H 12.239 Z"
       id="path0_fill-7"
       inkscape:connector-curvature="0" />
  </defs>
  <g
     transform="translate(48010.048,23737.285)"
     id="Canvas-3">
    <g
       id="Vector-6">
      <use
         id="use4499"
         transform="translate(-48001.83,-23694.707)"
         xlink:href="#path0_fill-7"
         style="fill:#222222"
         x="0"
         y="0"
         width="100%"
         height="100%" />
    </g>
  </g>
</svg>

<svg xmlns="http://www.w3.org/2000/svg" xmlns:xlink="http://www.w3.org/1999/xlink" width="29" height="72"><use xlink:href="#a" transform="translate(.649 .943)" width="100%" height="100%" fill="#222"/><defs><path id="a" d="M27.806 2.763c-.966.53-2.147.85-3.22.956 1.18-.744 2.04-1.913 2.469-3.294-1.074.637-2.255 1.169-3.65 1.488C22.33.743 20.934 0 19.324 0c-3.114 0-5.69 2.656-5.69 6.056 0 .425 0 .957.107 1.382-4.724-.213-8.91-2.657-11.702-6.27-.537.85-.752 1.913-.752 3.082 0 2.125.967 3.931 2.47 4.994-.967 0-1.826-.319-2.577-.744v.106c0 2.869 1.932 5.313 4.509 5.95-.43.107-.966.213-1.503.213-.322 0-.752 0-1.074-.106.752 2.443 2.792 4.143 5.261 4.143-1.932 1.594-4.402 2.55-6.978 2.55-.43 0-.86 0-1.396-.106 2.47 1.7 5.475 2.762 8.696 2.762 10.414 0 16.104-9.137 16.104-17.106v-.743c1.288-1.063 2.255-2.126 3.006-3.4z"/><path d="M12.668 8.713H8.374V5.95c0-1.063.752-1.275 1.181-1.275h3.006V0H8.374c-4.724 0-5.69 3.506-5.69 5.631v3.082H0v4.78h2.684v13.495h5.69V13.494h3.865z" id="b"/></defs><use transform="translate(8.218 42.578)" xlink:href="#b" width="100%" height="100%" fill="#222"/></svg>
